X: 33505
T: Rain In Slane, The
R: mazurka
M: 3/4
K: Dmajor
|:A/ F>E|D2 D>F A>d|f2 d2 F2|G2 G>A B>G|E2- E>e e>d|
c2 c>d c>B|1 A2 A>B A>G|F2 F>D F>A|d2- d3/2:|2 A2 A>B (3cBA|d2 A2 F2|D2- D3/2||
|:B/ A>d|f2 f>d A>d|f2 f>d A>d|g2 g>e c>B|A2- A>c B>A|
G2 G>A B>d|g2 g>d B>d|c2 c>A B>c|d2- d3/2:|

